raw-svg/objects-column.svg

<svg fill="none" height="24" viewBox="0 0 24 24" width="24" xmlns="http://www.w3.org/2000/svg"><path clip-rule="evenodd" d="m5 3.25c-.9665 0-1.75.7835-1.75 1.75v6c0 .9665.7835 1.75 1.75 1.75h4c.9665 0 1.75-.7835 1.75-1.75v-6c0-.9665-.7835-1.75-1.75-1.75zm-.25 1.75c0-.13807.11193-.25.25-.25h4c.13807 0 .25.11193.25.25v6c0 .1381-.11193.25-.25.25h-4c-.13807 0-.25-.1119-.25-.25zm.25 10.25c-.9665 0-1.75.7835-1.75 1.75v2c0 .9665.7835 1.75 1.75 1.75h4c.9665 0 1.75-.7835 1.75-1.75v-2c0-.9665-.7835-1.75-1.75-1.75zm-.25 1.75c0-.1381.11193-.25.25-.25h4c.13807 0 .25.1119.25.25v2c0 .1381-.11193.25-.25.25h-4c-.13807 0-.25-.1119-.25-.25zm8.5-4c0-.9665.7835-1.75 1.75-1.75h4c.9665 0 1.75.7835 1.75 1.75v6c0 .9665-.7835 1.75-1.75 1.75h-4c-.9665 0-1.75-.7835-1.75-1.75zm1.75-.25c-.1381 0-.25.1119-.25.25v6c0 .1381.1119.25.25.25h4c.1381 0 .25-.1119.25-.25v-6c0-.1381-.1119-.25-.25-.25zm0-9.5c-.9665 0-1.75.7835-1.75 1.75v2c0 .9665.7835 1.75 1.75 1.75h4c.9665 0 1.75-.7835 1.75-1.75v-2c0-.9665-.7835-1.75-1.75-1.75zm-.25 1.75c0-.13807.1119-.25.25-.25h4c.1381 0 .25.11193.25.25v2c0 .13807-.1119.25-.25.25h-4c-.1381 0-.25-.11193-.25-.25z" fill="#000" fill-rule="evenodd"/></svg>

<svg width="24" height="24" viewBox="0 0 24 24" fill="none" xmlns="http://www.w3.org/2000/svg">
<path fill-rule="evenodd" clip-rule="evenodd" d="M5 3.25C4.0335 3.25 3.25 4.0335 3.25 5V11C3.25 11.9665 4.0335 12.75 5 12.75H9C9.9665 12.75 10.75 11.9665 10.75 11V5C10.75 4.0335 9.9665 3.25 9 3.25H5ZM4.75 5C4.75 4.86193 4.86193 4.75 5 4.75H9C9.13807 4.75 9.25 4.86193 9.25 5V11C9.25 11.1381 9.13807 11.25 9 11.25H5C4.86193 11.25 4.75 11.1381 4.75 11V5ZM5 15.25C4.0335 15.25 3.25 16.0335 3.25 17V19C3.25 19.9665 4.0335 20.75 5 20.75H9C9.9665 20.75 10.75 19.9665 10.75 19V17C10.75 16.0335 9.9665 15.25 9 15.25H5ZM4.75 17C4.75 16.8619 4.86193 16.75 5 16.75H9C9.13807 16.75 9.25 16.8619 9.25 17V19C9.25 19.1381 9.13807 19.25 9 19.25H5C4.86193 19.25 4.75 19.1381 4.75 19V17ZM13.25 13C13.25 12.0335 14.0335 11.25 15 11.25H19C19.9665 11.25 20.75 12.0335 20.75 13V19C20.75 19.9665 19.9665 20.75 19 20.75H15C14.0335 20.75 13.25 19.9665 13.25 19V13ZM15 12.75C14.8619 12.75 14.75 12.8619 14.75 13V19C14.75 19.1381 14.8619 19.25 15 19.25H19C19.1381 19.25 19.25 19.1381 19.25 19V13C19.25 12.8619 19.1381 12.75 19 12.75H15ZM15 3.25C14.0335 3.25 13.25 4.0335 13.25 5V7C13.25 7.9665 14.0335 8.75 15 8.75H19C19.9665 8.75 20.75 7.9665 20.75 7V5C20.75 4.0335 19.9665 3.25 19 3.25H15ZM14.75 5C14.75 4.86193 14.8619 4.75 15 4.75H19C19.1381 4.75 19.25 4.86193 19.25 5V7C19.25 7.13807 19.1381 7.25 19 7.25H15C14.8619 7.25 14.75 7.13807 14.75 7V5Z" fill="black"/>
</svg>
